X: 759
T: Haishu kaihua suifenfen
%%abc-version 2.0
%%abcx-abcm2ps-target-version 5.9.1 (29 Sep 2008)
%%abc-creator hum2abc beta
%%abcx-conversion-date 2013/10/02 07:52:30
%%abc-edited-by Helmut Schaffrath
%%humdrum-veritas 3636797314
%%humdrum-veritas-data 1899244908
%%continueall 1
%%barnumbers 0
L: 1/8
M: 2/4
K: G
A2E G [I:setbarnb 1]| 
A2A2 | 
d2d2 | 
d ec2 | 
A2E G | 
A2c2 | 
D2E C | 
D4 | 
A2E G | 
A2A2 | 
d2d2 | 
d ec2 | 
B AG2 | 
A> A A3/ c/ | 
A G E C | 
D4 |]  



